!!!OTL: 655. Die verpflanzte Rose.
!!!ARE: Europa, Mitteleuropa, Deutschland, Westerwald
!!!SCT: B0655
!!!TXL: @@DE
!!!YEM: Copyright 1995, estate of Helmut Schaffrath.
**kern	**text
*ICvox	*
*Ivox	*
*clefG2	*
*M6/8	*
*k[f#c#g#d#]	*
*E:	*
!LO:TX:a:t=Etwas bewegt.	!
{8b	Jch
=1	=1
4b	ſah
8ee	im
4g#	Gar-
8b	-ten
=2	=2
8g#L	hold
8f#J	.
8g#	und
4e}	ſchön
{8g#	ein'
=3	=3
4b	auf-
8f#	-ge-
8f#L	-blüh-
8g#J	.
8a	-te
=4	=4
8cc#L	Ro-
8bJ	.
8b	-ſe
4g#}	ſtehn;
{8e	und
=5	=5
4b	wer
8b	ſie
8bL	kannt',
8ccJ#	.
8dd#	und
=6	=6
8eeL	wer
8dd#J	.
8cc#	ſie
4.b	ſah,
=7	=7
8g#L	wer
8f#J	.
8g#	ſie
4e}	ſah,
{8g#	ſtand
=8	=8
4b	mit
8f#	mit
8f#L	vor
8aJ	Verwundrung
8cc#	.
=9	=9
4b	.
8a	.
4g#}	da.
{8e	und
=10	=10
4b	wer
8b	ſie
8bL	kannt',
8ccJ#	.
8dd#	und
=11	=11
8eeL	wer
8dd#J	.
8cc#	ſie
4.b	ſah,
=12	=12
8g#L	wer
8f#J	.
8g#	ſie
4e}	ſah,
{8g#	ſtand
=13	=13
4b	mit
8f#	mit
8f#L	vor
8aJ	Verwundrung
8cc#	.
=14	=14
4b	.
8a	.
4g#}	da.
==	==
!!!AGN: Moral - Lied
!!!GTL: Didaktische Lieder: Betrachtungen, Vergleiche und Moralisationen
!!!ONB: ESAC (Essen Associative Code) Database: BOEHME
!!!AMT: compound duple
!!!AIN: vox
!!!EED: Helmut Schaffrath
!!!EEV: 1.0
!!Aus dem Westerwald.
!!@@COMMENT:"Aus dem Weſterwald (Biersdorf und Büſcheidt) in K. Becker's "Rhein. Volksliederborn Nr. 109 und deſſen Manuſcripten."
!!@@END:
!!!URL-scan: https://archive.org/details/BoehmeVtLieder1895/page/n511/mode/2up
!!!ENC: Anna Maria Matuszewska
!!!EEV: 2024/16/07
*-	*-
